knowledge/raw_profiles/base.pp3
[Version]
AppVersion=5.10
Version=349

[Exposure]
Enabled=true
Compensation=0
