knowledge/raw_profiles/cinematic_moody.pp3
[Version]
AppVersion=5.10
Version=349

[Exposure]
Enabled=true
Compensation=-0.15
Saturation=-10
Black=1200
