knowledge/raw_profiles/clean_natural.pp3
[Version]
AppVersion=5.10
Version=349

[Exposure]
Enabled=true
Compensation=0
Saturation=0
