knowledge/raw_profiles/fuji_travel_muted.pp3
[Version]
AppVersion=5.10
Version=349

[Exposure]
Enabled=true
Compensation=0
Saturation=-8
Black=600
