knowledge/raw_profiles/soft_portrait.pp3
[Version]
AppVersion=5.10
Version=349

[Exposure]
Enabled=true
Compensation=0.05
Saturation=-3
