knowledge/raw_profiles/warm_sunset.pp3
[Version]
AppVersion=5.10
Version=349

[Exposure]
Enabled=true
Compensation=0.1
Saturation=8
